X: 1
T: John Barleycorn
T: the Idiot
C: Stan Rogers
F: http://bassett-street-hounds.org/songs/john_barleycorn.php
Z: 2009 John Chambers <jc:trillian.mit.edu>
M: 4/4
L: 1/8
K: G
G/A/ \
| BD Dc/B/ (3AGA BD | EG GF E3 D \
| EG GF/E/ DG G>A |1 (3Bcd cB A3 :|2 (3Bcd BA G3 |]
G \
| ee ed/c/ dd d>c | (3BAG GA B3 G \
| ee ed/c/ dd d>c | (3BAG cB A3 G/G/ |
| BD Dc/B/ (3AGA BD | EG GF E3 D \
| EG GF/E/ DG G>A | (3Bcd BA G3 |]
